src/assets/home_icon.svg

<svg width="32" height="32" viewBox="0 0 32 32" fill="none" xmlns="http://www.w3.org/2000/svg">
<path fill-rule="evenodd" clip-rule="evenodd" d="M23.9525 7.14073C24.9394 7.28941 25.7803 7.94898 26.1583 8.87019C26.536 9.79123 26.394 10.8345 25.7853 11.6069L13.0636 27.7475L12.5035 27.3086L11.497 28.5864L7.08537 25.1275L16.8553 12.7331L6.70002 11.2034L7.44641 5.7291L8.86888 5.94304L9.01306 4.89012L23.9525 7.14073Z" fill="#CCFF00"/>
<path fill-rule="evenodd" clip-rule="evenodd" d="M9.90486 10.6383C10.0831 10.6581 10.2313 10.7132 10.3502 10.8024C10.4691 10.8916 10.5535 11.0054 10.6031 11.1442C10.6527 11.2829 10.6527 11.4318 10.6031 11.5904C10.5044 11.9316 10.2982 12.1342 9.98493 12.2027C9.98427 12.2049 9.98464 12.2074 9.98396 12.2096C9.8551 12.6556 9.54299 12.869 9.04743 12.8492C8.84916 12.8492 8.67563 12.8843 8.52693 12.9537C8.41788 12.9934 8.3183 13.0228 8.22907 13.0426C8.14958 13.0623 7.95122 13.0624 7.63435 13.0426H7.24763C7.15867 13.0426 7.07957 13.0474 7.01032 13.0572C6.95091 13.0671 6.88627 13.0824 6.81697 13.1022C6.75748 13.1121 6.67782 13.132 6.57868 13.1617C6.33098 13.2311 6.08322 13.2757 5.83552 13.2955C5.73539 13.2955 5.6512 13.2976 5.58357 13.3014C5.56871 13.3224 5.55258 13.3474 5.53279 13.3746C5.44364 13.5133 5.35436 13.6767 5.26521 13.8649C5.1859 14.0433 5.14607 14.1628 5.14607 14.2223C5.14606 14.3312 5.12608 14.4253 5.0865 14.5045C5.0171 14.6929 5.00763 14.8124 5.0572 14.8619C5.06482 14.8679 5.07603 14.87 5.08845 14.8746C5.15419 14.8754 5.22127 14.8748 5.28962 14.8766C5.38101 14.879 5.47264 14.8851 5.56404 14.8893C5.85 14.8719 6.17157 14.8672 6.52888 14.8766C6.90549 14.8865 7.28215 14.9112 7.65876 14.9508C8.04539 14.9904 8.40764 15.0398 8.7447 15.0992C9.09158 15.1587 9.37902 15.2232 9.60701 15.2926L10.1129 15.442C10.291 15.4915 10.4346 15.5753 10.5435 15.694C10.6625 15.803 10.7374 15.9273 10.7672 16.066C10.8068 16.2046 10.8019 16.3434 10.7525 16.482C10.7129 16.6208 10.6236 16.7356 10.4849 16.8248C10.3905 16.8935 10.2843 16.9299 10.1676 16.9391C10.1618 16.9933 10.1518 17.0479 10.1324 17.1022C10.0927 17.2409 10.0036 17.3548 9.86482 17.444C9.75589 17.5231 9.63231 17.563 9.49372 17.5631C9.36493 17.5532 9.1664 17.5038 8.899 17.4147C8.64124 17.3254 8.41743 17.2562 8.22907 17.2067C8.04074 17.1472 7.82731 17.1016 7.58943 17.0719C7.36153 17.0422 7.08902 17.0232 6.77204 17.0133C6.46481 16.9935 6.06343 16.983 5.56794 16.983H5.43415C5.3945 16.983 5.34422 16.9783 5.28474 16.9684C5.05676 16.9602 4.86898 16.9602 4.72126 16.9654C4.66913 17.2067 4.57315 17.4873 4.4322 17.8063C4.27374 18.173 4.40264 18.6141 4.81892 19.1295C4.96128 19.3003 5.05845 19.4026 5.10993 19.4371C5.15313 19.4443 5.19613 19.4544 5.23982 19.4635C5.28725 19.4624 5.34523 19.4557 5.41365 19.442C6.02829 19.323 6.7025 19.4416 7.43611 19.7985C7.64429 19.8976 7.76852 19.9469 7.80818 19.9469C7.91702 19.947 8.02074 19.9774 8.1197 20.0367C8.21869 20.106 8.30329 20.185 8.37263 20.274C8.45185 20.3731 8.51169 20.4824 8.55134 20.6012C8.59099 20.7201 8.59573 20.8349 8.56599 20.944C8.52633 21.0924 8.44742 21.2065 8.32868 21.2858C8.22596 21.3542 8.10411 21.395 7.96443 21.4117C7.96522 21.4632 7.96032 21.5137 7.94685 21.5631C7.90719 21.7118 7.82753 21.8256 7.70857 21.9049C7.58968 21.9841 7.44629 22.0287 7.2779 22.0387C7.11938 22.0486 6.94088 22.0239 6.74275 21.9645C6.5544 21.9149 6.36092 21.8305 6.16267 21.7115C5.77613 21.4737 5.36438 21.4092 4.92829 21.5182C4.26408 21.6768 3.73304 21.4985 3.3365 20.983C3.27695 20.9065 3.21635 20.8345 3.15681 20.7652C2.9957 20.6684 2.84898 20.535 2.71736 20.3639C2.64799 20.2747 2.57871 20.1902 2.50935 20.111C2.44987 20.0416 2.39485 19.9771 2.34529 19.9176C2.06777 19.6102 1.84484 19.0943 1.67634 18.3707C1.60706 18.0932 1.65158 17.7611 1.81013 17.3746C1.96874 16.9781 2.05788 16.6803 2.07771 16.482C2.08755 16.3439 2.08272 16.26 2.06306 16.2301C2.05315 16.1904 2.00384 16.1402 1.91462 16.0807C1.74609 15.9815 1.6266 15.8526 1.5572 15.694C1.49785 15.5355 1.47782 15.3816 1.49763 15.233C1.5274 15.0745 1.59762 14.9406 1.70661 14.8317C1.82544 14.713 1.9738 14.6483 2.15193 14.6383C2.21141 14.6383 2.26642 14.5937 2.31599 14.5045C2.35562 14.4448 2.40501 14.2712 2.46443 13.984C2.514 13.7957 2.58896 13.5822 2.68806 13.3443C2.78717 13.1066 2.91628 12.8435 3.07478 12.5563C3.20347 12.3186 3.30706 12.0858 3.3863 11.858C3.43584 11.7094 3.48618 11.5955 3.53572 11.5162C3.58528 11.4369 3.6545 11.3772 3.74372 11.3375C3.83287 11.288 3.95645 11.2576 4.11482 11.2477C4.2734 11.2278 4.48689 11.2184 4.75447 11.2184C5.20039 11.2184 5.53245 11.1832 5.75056 11.1139C6.19667 10.9751 6.61393 10.9211 7.00056 10.9508C7.35721 10.9705 7.65435 10.9108 7.89216 10.7721C7.93182 10.7523 8.01148 10.7229 8.13044 10.6832C8.31876 10.6238 8.4971 10.6086 8.6656 10.6383C8.83575 10.6572 8.97824 10.7086 9.09431 10.7906C9.10646 10.7841 9.11956 10.779 9.13142 10.7721C9.17108 10.7523 9.25021 10.7227 9.36872 10.6832C9.55708 10.6237 9.73632 10.6086 9.90486 10.6383ZM27.3375 10.5787C27.5352 10.5787 27.6837 10.5835 27.7828 10.5934C27.9612 10.6033 28.1405 10.6583 28.3189 10.7574C28.3683 10.7772 28.4275 10.802 28.4967 10.8317C28.566 10.8614 28.6506 10.8861 28.7496 10.9059C29.1957 11.0149 29.5333 11.2235 29.7613 11.5309C29.8099 11.5937 29.8516 11.6585 29.8883 11.7242C30.0872 11.8346 30.2514 11.9762 30.3804 12.15C30.6184 12.4573 30.7132 12.7997 30.6636 13.1764C30.6438 13.3647 30.5689 13.5136 30.44 13.6227C30.3211 13.7216 30.1825 13.7758 30.024 13.7858C29.8753 13.7957 29.7264 13.7615 29.5777 13.6822C29.4793 13.6232 29.4027 13.543 29.3433 13.4449C29.3071 13.5122 29.2612 13.5723 29.2017 13.6227C29.0828 13.7218 28.9434 13.7758 28.7847 13.7858C28.6361 13.7956 28.4871 13.7615 28.3384 13.6822C28.19 13.5931 28.0864 13.459 28.0269 13.2809C27.9575 13.0628 27.8134 12.9338 27.5953 12.8942C27.4862 12.8644 27.3373 12.8094 27.149 12.7301C27.0417 12.6854 26.9423 12.6585 26.8511 12.6461C26.7664 12.6485 26.6937 12.6516 26.6334 12.6559C26.4946 12.6559 26.3808 12.6711 26.2916 12.7008C26.2024 12.7305 26.1274 12.7751 26.0679 12.8346C26.0085 12.894 25.9296 12.9787 25.8306 13.0875C25.6425 13.3054 25.5133 13.5182 25.4439 13.7262C25.3844 13.9343 25.3645 14.1924 25.3843 14.4996C25.4141 14.797 25.3743 15.0701 25.2652 15.318C25.166 15.5558 24.9829 15.8235 24.7154 16.1207C24.4085 16.4574 24.2348 16.6604 24.1949 16.7301C24.1354 16.8193 24.1051 16.9189 24.1051 17.0279C24.105 17.1765 24.0861 17.2857 24.0465 17.3551C23.9969 17.4443 23.9665 17.6522 23.9566 17.9791C23.9467 18.1377 23.9372 18.2724 23.9273 18.3815C23.9273 18.4902 23.9168 18.5693 23.897 18.6188C23.8777 18.6914 23.8828 18.7675 23.9107 18.8473C23.9734 18.8831 24.0396 18.9181 24.1099 18.9508C24.2289 19.0004 24.3437 19.0554 24.4527 19.1149C24.5615 19.1643 24.6653 19.2186 24.7642 19.2779C24.9625 19.4068 25.1066 19.476 25.1959 19.486C25.3545 19.5157 25.5233 19.5508 25.7017 19.5904C25.8799 19.63 26.073 19.6747 26.2808 19.7242C26.5286 19.7837 26.762 19.8131 26.9801 19.8131C27.1882 19.8131 27.3371 19.8283 27.4263 19.858C27.6737 19.9174 27.8371 19.9468 27.9166 19.9469C27.9761 19.9568 28.0662 19.9473 28.1851 19.9176C28.3436 19.878 28.4775 19.8333 28.5865 19.7838C28.6271 19.7653 28.6654 19.7419 28.7047 19.7193C28.7663 19.634 28.8333 19.5403 28.9039 19.4371C28.9931 19.2983 29.0623 19.1836 29.1119 19.0943C29.1713 18.9953 29.2112 18.906 29.231 18.8268C29.2508 18.7476 29.2555 18.6686 29.2457 18.5895C29.2457 18.5003 29.2314 18.3959 29.2017 18.277C29.1819 18.1779 29.162 18.0886 29.1422 18.0094C29.1224 17.9302 29.1072 17.8608 29.0972 17.8014C29.0576 17.6232 29.0082 17.514 28.9488 17.4742C28.9442 17.4712 28.9378 17.4702 28.9322 17.4674C28.9097 17.47 28.8866 17.4714 28.8638 17.4742C28.7053 17.494 28.5563 17.514 28.4176 17.5338C28.289 17.5536 28.19 17.5726 28.1207 17.5924C27.9224 17.6519 27.7384 17.6623 27.5699 17.6227C27.4739 17.5986 27.3879 17.562 27.3101 17.5162C27.2656 17.5223 27.2219 17.5277 27.1793 17.5338C27.0504 17.5536 26.9508 17.5726 26.8814 17.5924C26.6833 17.6518 26.5001 17.6623 26.3316 17.6227C26.1731 17.5831 26.0392 17.5136 25.9302 17.4147C25.8312 17.3057 25.7666 17.1765 25.7369 17.0279C25.7071 16.8693 25.7365 16.7053 25.8258 16.5367C25.8852 16.4179 25.9545 16.3333 26.0338 16.2838C26.1106 16.2411 26.2173 16.2107 26.3531 16.1901C26.3663 16.1008 26.3961 16.0098 26.4449 15.9176C26.5043 15.7987 26.5736 15.7142 26.6529 15.6647C26.7421 15.6151 26.8711 15.58 27.0396 15.5602C27.1288 15.5503 27.218 15.5408 27.3072 15.5309C27.4658 15.511 27.6052 15.4864 27.7242 15.4567C27.8628 15.4369 28.036 15.4216 28.2437 15.4117C28.4519 15.3919 28.6606 15.3824 28.8687 15.3824C29.0868 15.3725 29.285 15.3725 29.4634 15.3824C29.6419 15.3824 29.7661 15.3872 29.8355 15.3971C30.2218 15.4665 30.5142 15.6099 30.7125 15.8277C30.8026 15.9221 30.8799 16.036 30.9459 16.1676C31.1003 16.2409 31.2293 16.3342 31.3326 16.4479C31.5407 16.6659 31.6849 16.9829 31.7642 17.399C31.7841 17.518 31.8087 17.6328 31.8384 17.7418C31.8681 17.8408 31.8929 17.9349 31.9127 18.024C32.0118 18.3809 32.027 18.7233 31.9576 19.0504C31.908 19.3278 31.8482 19.5309 31.7789 19.6598L31.0201 20.8199C30.9606 20.8992 30.8818 20.9837 30.7828 21.0729C30.6837 21.162 30.5745 21.2513 30.4556 21.3404C30.3367 21.4296 30.2124 21.5084 30.0836 21.5777C29.9547 21.6571 29.8305 21.7215 29.7115 21.7711C29.5132 21.8504 29.3397 21.9102 29.191 21.9498C29.0523 21.9894 28.9232 22.0141 28.8043 22.024C28.6854 22.0438 28.5667 22.0438 28.4478 22.024C28.3388 22.0141 28.2098 21.9895 28.0611 21.9498C28.039 21.9445 28.0166 21.941 27.9947 21.9361C27.9803 21.9402 27.9667 21.9461 27.9527 21.9498C27.814 21.9894 27.6849 22.0141 27.566 22.024C27.447 22.0439 27.3275 22.0439 27.2086 22.024C27.0996 22.0141 26.9705 21.9894 26.8218 21.9498C26.6138 21.9003 26.4154 21.8709 26.2271 21.861C25.9297 21.8609 25.5626 21.8107 25.1265 21.7115L24.5025 21.5777C24.1159 21.5381 23.7584 21.3997 23.4312 21.1617C23.3916 21.1419 23.3277 21.1066 23.2388 21.0572C23.1595 21.0176 23.0495 20.9683 22.9107 20.9088C22.3161 20.6313 21.855 20.2841 21.5279 19.8678C21.2108 19.4515 21.0874 19.035 21.1568 18.6188L21.231 17.9352C21.2509 17.6278 21.2708 17.3547 21.2906 17.1168C21.3203 16.8791 21.3545 16.6711 21.3941 16.4928C21.4338 16.2449 21.6917 15.8628 22.1676 15.3473C22.2667 15.2283 22.3464 15.1344 22.4058 15.0651C22.4751 14.9859 22.5245 14.9165 22.5543 14.857C22.584 14.7878 22.6039 14.7231 22.6138 14.6637C22.6238 14.5943 22.6285 14.5146 22.6285 14.4254C22.6285 14.2172 22.6484 14.0484 22.6881 13.9195C22.7277 13.7709 22.7476 13.6171 22.7476 13.4586C22.7476 13.2902 22.7628 13.181 22.7926 13.1315C22.832 13.0722 22.8616 13.0178 22.8814 12.9684C22.9211 12.8396 23.0103 12.6858 23.149 12.5074C23.2877 12.3192 23.4415 12.1407 23.6099 11.9723C23.7193 11.8629 23.8296 11.7632 23.939 11.6725C24.0307 11.5624 24.1264 11.4548 24.2291 11.3522C24.4075 11.1738 24.5858 11.0201 24.7642 10.8912C24.9427 10.7524 25.102 10.668 25.2408 10.6383C25.3506 10.5987 25.8014 10.5787 26.5933 10.5787C26.9007 10.5688 27.1491 10.5688 27.3375 10.5787ZM20.2437 10.8619C20.432 10.7827 20.6152 10.7874 20.7935 10.8766C20.9818 10.9559 21.1156 11.1048 21.1949 11.3229C21.2048 11.343 21.2153 11.3972 21.2252 11.486C21.2351 11.5653 21.2446 11.6848 21.2545 11.8434C21.2842 12.1503 21.3288 12.3831 21.3883 12.5416C21.4972 12.7992 21.517 13.0223 21.4478 13.2106C21.3784 13.3989 21.2096 13.5981 20.942 13.8063C20.7637 13.9449 20.6744 14.0342 20.6744 14.0738C20.6742 14.1037 20.6495 14.1685 20.6002 14.2672C20.5507 14.386 20.5259 14.4754 20.5259 14.5348C20.5258 14.6142 20.4813 14.7927 20.3922 15.0699C20.1939 15.7044 20.0497 16.4033 19.9605 17.1666C19.911 17.5234 19.8816 17.717 19.8717 17.7467C19.8618 17.7673 19.857 18.0452 19.857 18.5797C19.857 18.8868 19.8418 19.1498 19.8121 19.3678C19.7922 19.5758 19.7524 19.7496 19.6929 19.8883C19.6335 20.017 19.5489 20.1158 19.44 20.1852C19.341 20.2644 19.2174 20.3195 19.0689 20.3492C18.9797 20.3691 18.8896 20.4477 18.8004 20.5865C18.7112 20.7252 18.6372 20.8344 18.5777 20.9137C18.5183 21.0028 18.4689 21.0674 18.4293 21.107C18.3896 21.1566 18.3545 21.1964 18.3248 21.2262C18.2952 21.2656 18.2607 21.2952 18.2213 21.3151C18.0009 21.4387 17.7746 21.4481 17.5426 21.3443C17.5085 21.3603 17.4743 21.3728 17.44 21.3834C17.4011 21.4407 17.3693 21.4926 17.3385 21.5338C17.2791 21.6228 17.2296 21.6876 17.19 21.7272C17.1507 21.7764 17.1161 21.8157 17.0865 21.8453C17.0568 21.885 17.0217 21.9153 16.982 21.9352C16.5756 22.1632 16.1488 22.0048 15.7027 21.4596C15.6531 21.4001 15.6038 21.3252 15.5543 21.236C15.5047 21.1567 15.4554 21.0722 15.4058 20.983C15.3662 20.8939 15.3311 20.8094 15.3013 20.7301C15.2717 20.6511 15.2574 20.5967 15.2574 20.567C15.2574 20.5571 15.2318 20.4926 15.1822 20.3736C15.1426 20.3043 15.1227 20.2101 15.1226 20.0914L15.0933 19.1988V18.277C15.0834 18.2274 15.0682 18.1724 15.0484 18.1129C15.0385 18.0436 15.0185 17.9742 14.9888 17.9049L14.7955 17.3248C14.7658 17.2259 14.7363 17.1412 14.7066 17.0719C14.6868 16.9928 14.6573 16.9185 14.6177 16.8492C14.5781 16.7699 14.5335 16.6903 14.484 16.611C14.4622 16.5718 14.4352 16.5308 14.4058 16.486C14.3551 16.6422 14.2942 16.8003 14.2203 16.9586C14.1113 17.1964 14.042 17.3948 14.0123 17.5533C14.0123 17.5731 14.0075 17.6027 13.9976 17.6422C13.9976 17.6719 13.9929 17.7118 13.983 17.7613C13.9731 17.8109 13.9626 17.8555 13.9527 17.8951V17.984C13.9329 18.0633 13.9187 18.2123 13.9088 18.4303V19.0846C13.9088 19.3126 13.9135 19.526 13.9234 19.7242C13.9333 19.9125 13.9485 20.0263 13.9683 20.066C14.0972 20.3931 14.0914 20.6805 13.9527 20.9283C13.8734 21.0473 13.7795 21.1374 13.6705 21.1969C13.5615 21.2563 13.4475 21.2753 13.3287 21.2555C13.2447 21.2485 13.1636 21.221 13.0845 21.1744C13.0731 21.1816 13.0622 21.1904 13.0504 21.1969C12.9735 21.2388 12.8939 21.2589 12.8121 21.2613C12.7971 21.3622 12.765 21.4581 12.7144 21.5485C12.6351 21.6674 12.5403 21.7565 12.4312 21.816C12.3223 21.8754 12.2083 21.8954 12.0894 21.8756C11.9706 21.8657 11.8566 21.8162 11.7476 21.7272C11.6386 21.6479 11.5447 21.5235 11.4654 21.3551C11.3663 21.147 11.2961 20.8547 11.2564 20.4781C11.2168 20.1014 11.2026 19.7041 11.2125 19.2877C11.2323 18.8715 11.2769 18.4653 11.3463 18.069C11.4157 17.6625 11.5095 17.3296 11.6285 17.0719C11.6878 16.9433 11.7326 16.8396 11.7623 16.7604C11.7919 16.6813 11.8119 16.6117 11.8218 16.5524C11.8416 16.4831 11.8511 16.4184 11.8511 16.359C11.8611 16.2896 11.8668 16.1948 11.8668 16.0758C11.8668 15.9571 11.861 15.8581 11.8511 15.7789C11.8511 15.6897 11.8369 15.6148 11.8072 15.5553C11.7874 15.486 11.7569 15.4271 11.7174 15.3776C11.6777 15.3181 11.6237 15.2479 11.5543 15.1686C10.91 14.4449 10.9052 13.6767 11.5396 12.8639C11.599 12.7946 11.6532 12.7203 11.7027 12.6412C11.7622 12.5619 11.8172 12.4823 11.8668 12.4029C12.0768 12.0574 12.2876 11.8458 12.4976 11.7643C12.801 11.2723 13.1044 11.0552 13.4078 11.1139C13.4785 11.1276 13.5502 11.1571 13.6236 11.2008C13.7583 11.1181 13.8922 11.0879 14.0269 11.1139C14.3343 11.1734 14.6671 11.5157 15.024 12.1402L15.7076 13.2701L16.3023 14.2672L16.7486 14.9508C17.0559 15.3573 17.274 15.8134 17.4029 16.319C17.4204 16.3801 17.4411 16.4374 17.4586 16.4928C17.4786 16.3849 17.4971 16.2806 17.5172 16.1803C17.5667 15.9821 17.6218 15.7838 17.6812 15.5856C17.7407 15.3873 17.8099 15.1587 17.8892 14.901C17.909 14.8612 17.929 14.7766 17.9488 14.6481C18.0281 14.2221 18.2161 13.8357 18.5133 13.4889C18.5628 13.4196 18.5979 13.3549 18.6177 13.2955C18.6277 13.2658 18.6277 13.206 18.6177 13.1168C18.6177 13.0276 18.613 12.9034 18.6031 12.7447C18.5833 12.3287 18.5975 12.0363 18.647 11.8678C18.7065 11.6993 18.826 11.5703 19.0045 11.4811C19.0815 11.4487 19.1576 11.4306 19.233 11.4264C19.2415 11.3565 19.2518 11.2966 19.2662 11.2477C19.3257 11.0793 19.4453 10.9511 19.6236 10.8619C19.8119 10.7826 19.995 10.7874 20.1734 10.8766C20.182 10.8802 20.1904 10.8844 20.1988 10.8883C20.2136 10.8798 20.228 10.8698 20.2437 10.8619Z" fill="#222222"/>
</svg>

<svg xmlns="http://www.w3.org/2000/svg" width="32" height="32" fill="none" viewBox="0 0 32 32"><path fill="#cf0" fill-rule="evenodd" d="M23.953 7.14a2.85 2.85 0 0 1 2.205 1.73 2.74 2.74 0 0 1-.373 2.737l-12.721 16.14-.56-.438-1.007 1.277-4.412-3.458 9.77-12.395L6.7 11.203l.746-5.474 1.423.214.144-1.053z" clip-rule="evenodd"/><path fill="#222" fill-rule="evenodd" d="M9.905 10.638a.9.9 0 0 1 .445.164q.18.134.253.342.075.209 0 .446-.149.511-.618.613l-.001.007q-.193.669-.937.64a1.2 1.2 0 0 0-.52.104q-.165.06-.298.089-.12.03-.595 0h-.386a2 2 0 0 0-.238.014q-.09.015-.193.045-.09.015-.238.06-.372.105-.743.133a5 5 0 0 0-.252.006l-.051.074q-.135.207-.268.49-.12.268-.119.357 0 .164-.06.283-.103.282-.029.357.012.007.031.013.099 0 .202.002.137.005.274.012.43-.026.965-.012.564.014 1.13.074.58.06 1.086.148.52.09.862.194l.506.149q.268.074.43.252a.7.7 0 0 1 .224.372.67.67 0 0 1-.014.416.6.6 0 0 1-.268.343.6.6 0 0 1-.317.114.7.7 0 0 1-.036.163.6.6 0 0 1-.267.342.6.6 0 0 1-.371.12 2.8 2.8 0 0 1-.595-.15 9 9 0 0 0-.67-.207 3.6 3.6 0 0 0-.64-.135 9 9 0 0 0-.817-.059 20 20 0 0 0-1.204-.03h-.134a1 1 0 0 1-.15-.015 8 8 0 0 0-.563-.003 4.5 4.5 0 0 1-.289.841q-.238.55.387 1.323.214.257.29.308.066.012.13.026.072 0 .175-.021.922-.178 2.022.357.313.148.372.148.163 0 .312.09a1.16 1.16 0 0 1 .431.564q.06.18.015.343a.57.57 0 0 1-.237.342.8.8 0 0 1-.365.126.572.572 0 0 1-.256.493.85.85 0 0 1-.43.134 1.5 1.5 0 0 1-.535-.075 2.3 2.3 0 0 1-.58-.252 1.55 1.55 0 0 0-1.235-.194q-.997.238-1.591-.535a6 6 0 0 0-.18-.218 1.6 1.6 0 0 1-.44-.401 6 6 0 0 0-.208-.253l-.164-.193q-.416-.462-.669-1.547-.103-.417.134-.996.238-.596.268-.893.015-.207-.015-.252-.015-.06-.148-.15a.84.84 0 0 1-.358-.386.95.95 0 0 1-.06-.461.75.75 0 0 1 .21-.401.66.66 0 0 1 .445-.194q.09 0 .164-.133.06-.09.148-.521.075-.283.224-.64.15-.356.387-.788.192-.356.311-.698.075-.223.15-.342a.46.46 0 0 1 .208-.178q.133-.075.37-.09.24-.03.64-.03.669 0 .997-.104A3.4 3.4 0 0 1 7 10.95q.534.03.891-.179.06-.03.238-.089.283-.09.536-.045.255.03.428.153.02-.01.037-.019.06-.03.238-.089a1.1 1.1 0 0 1 .536-.045m17.432-.06q.297 0 .446.015.267.015.536.164l.178.075q.104.045.253.074.669.163 1.011.625.072.094.127.193.3.165.492.426.357.461.284 1.026a.65.65 0 0 1-.224.447.7.7 0 0 1-.416.163.8.8 0 0 1-.446-.104.7.7 0 0 1-.235-.237.6.6 0 0 1-.141.178.7.7 0 0 1-.417.163.8.8 0 0 1-.447-.104.7.7 0 0 1-.311-.401.53.53 0 0 0-.432-.387 4 4 0 0 1-.446-.164 1.2 1.2 0 0 0-.298-.084 5 5 0 0 0-.218.01 1.1 1.1 0 0 0-.341.045.6.6 0 0 0-.224.134 8 8 0 0 0-.237.252q-.284.327-.387.64-.09.31-.06.773.045.446-.119.818-.148.357-.55.803-.46.505-.52.61a.53.53 0 0 0-.09.297q0 .223-.058.327-.075.134-.09.624-.015.238-.03.402 0 .164-.03.238a.4.4 0 0 0 .014.228q.093.054.199.104.179.075.343.164.162.075.311.163.298.193.432.208.238.045.506.104.267.06.579.134.372.09.7.09.311 0 .445.044.372.09.49.089.09.015.27-.03.237-.059.4-.133.061-.03.119-.065.092-.128.199-.282.134-.208.208-.343.09-.149.119-.267a.6.6 0 0 0 .015-.238q0-.134-.044-.312-.03-.149-.06-.268a3 3 0 0 1-.045-.208q-.06-.267-.148-.327l-.017-.007-.068.007q-.239.03-.446.06-.194.03-.297.058-.299.09-.551.03a1 1 0 0 1-.26-.106l-.13.018q-.195.03-.299.058-.296.09-.55.03a.9.9 0 0 1-.4-.207.8.8 0 0 1-.194-.387.74.74 0 0 1 .089-.491.6.6 0 0 1 .208-.253 1 1 0 0 1 .32-.094.9.9 0 0 1 .09-.272.6.6 0 0 1 .209-.253q.134-.075.387-.105l.267-.03q.238-.029.417-.073.208-.03.52-.045.312-.03.625-.03.327-.015.594 0 .268 0 .372.015.581.105.877.43.135.143.234.34.231.11.387.28.312.328.431.952.03.179.074.343.045.149.075.282.148.536.045 1.026-.075.416-.18.61l-.758 1.16q-.09.12-.237.253-.15.133-.327.267a3 3 0 0 1-.372.238 3 3 0 0 1-.372.193 5 5 0 0 1-.521.179q-.209.06-.387.074-.178.03-.356 0a2.4 2.4 0 0 1-.387-.074l-.066-.014-.042.014q-.208.06-.387.074-.179.03-.357 0a2.4 2.4 0 0 1-.387-.074 3.3 3.3 0 0 0-.595-.089q-.446 0-1.1-.15l-.624-.133a2.17 2.17 0 0 1-1.072-.416l-.192-.105q-.12-.06-.328-.148-.892-.417-1.383-1.041-.475-.624-.371-1.25l.074-.683q.03-.46.06-.818.045-.357.103-.624.06-.372.774-1.146.148-.178.238-.282.105-.12.148-.208a1 1 0 0 0 .06-.193q.015-.105.014-.239 0-.312.06-.506.06-.223.06-.46 0-.253.045-.327a1 1 0 0 0 .088-.164q.06-.193.268-.46a4.7 4.7 0 0 1 .79-.835 4.7 4.7 0 0 1 .825-.782q.268-.208.477-.253.165-.06 1.352-.06.462-.015.744 0m-7.093.284a.63.63 0 0 1 .55.015.72.72 0 0 1 .431.609q.015.12.03.357.045.46.133.699.164.386.06.669t-.506.595q-.267.208-.268.268a.6.6 0 0 1-.074.193.8.8 0 0 0-.074.268q0 .12-.134.535a11.5 11.5 0 0 0-.431 2.097q-.075.535-.09.58-.015.03-.014.833 0 .46-.045.788-.03.312-.12.52a.7.7 0 0 1-.252.297.85.85 0 0 1-.371.164q-.135.03-.269.238-.133.207-.222.327a1.3 1.3 0 0 1-.149.193 2 2 0 0 1-.104.12.3.3 0 0 1-.104.088.72.72 0 0 1-.678.03 1 1 0 0 1-.103.038c-.039.058-.07.11-.102.15q-.088.135-.148.194-.06.075-.104.118a.3.3 0 0 1-.104.09q-.61.342-1.28-.475a1.5 1.5 0 0 1-.148-.224 6 6 0 0 1-.148-.253 5 5 0 0 1-.105-.253.6.6 0 0 1-.044-.163q0-.015-.075-.193a.6.6 0 0 1-.06-.283l-.029-.892v-.922a1.4 1.4 0 0 0-.045-.164.8.8 0 0 0-.06-.208l-.192-.58a2 2 0 0 0-.09-.253.9.9 0 0 0-.088-.223 3 3 0 0 0-.134-.238q-.034-.059-.078-.125-.075.234-.186.473a2.7 2.7 0 0 0-.208.594q0 .03-.014.09 0 .044-.015.118-.015.075-.03.134v.089q-.03.12-.044.446v.655q0 .342.014.64.015.281.045.341.194.49-.015.862a.8.8 0 0 1-.282.269.52.52 0 0 1-.342.059.6.6 0 0 1-.245-.082q-.015.012-.034.023a.5.5 0 0 1-.238.064.8.8 0 0 1-.098.288.8.8 0 0 1-.283.267.52.52 0 0 1-.342.06.6.6 0 0 1-.341-.149.95.95 0 0 1-.283-.372q-.149-.312-.209-.877a9 9 0 0 1-.043-1.19q.03-.625.133-1.219.104-.61.283-.997.089-.193.133-.312.045-.118.06-.208.03-.104.03-.193.015-.105.015-.283a2.4 2.4 0 0 0-.016-.297.5.5 0 0 0-.044-.224.5.5 0 0 0-.09-.177q-.059-.09-.163-.21-.966-1.085-.014-2.304.088-.105.163-.223a3 3 0 0 0 .164-.238q.315-.518.63-.639.456-.738.91-.65.107.021.217.087a.55.55 0 0 1 .403-.087q.461.09.997 1.026l.684 1.13.594.997.447.684q.46.609.654 1.368.027.09.056.174.029-.162.058-.313.075-.297.164-.594l.208-.685q.03-.06.06-.253.12-.639.564-1.16a.8.8 0 0 0 .105-.192q.015-.045 0-.18 0-.133-.015-.371-.03-.624.044-.877a.68.68 0 0 1 .358-.387.7.7 0 0 1 .228-.055q.012-.106.033-.178a.68.68 0 0 1 .358-.386.63.63 0 0 1 .55.015l.025.011q.022-.013.045-.026" clip-rule="evenodd"/></svg>
